svg/id-not-verified.svg

<?xml version="1.0" encoding="UTF-8"?>
<svg xmlns="http://www.w3.org/2000/svg" xmlns:xlink="http://www.w3.org/1999/xlink" width="32" height="32" viewBox="0 0 32 32">
<path fill-rule="nonzero" fill="rgb(0%, 0%, 0%)" fill-opacity="1" d="M 16 1.28125 C 14.941406 1.28125 14.078125 2.140625 14.078125 3.199219 L 14.078125 5.761719 L 17.921875 5.761719 L 17.921875 3.199219 C 17.917969 2.140625 17.058594 1.28125 16 1.28125 M 16 3.199219 C 16.234375 3.191406 16.453125 3.3125 16.570312 3.511719 C 16.691406 3.714844 16.691406 3.964844 16.570312 4.164062 C 16.453125 4.367188 16.234375 4.488281 16 4.480469 C 15.65625 4.46875 15.378906 4.1875 15.378906 3.839844 C 15.378906 3.496094 15.65625 3.210938 16 3.199219 M 8.320312 3.839844 C 7.257812 3.84375 6.398438 4.703125 6.398438 5.761719 L 6.398438 26.238281 C 6.398438 27.296875 7.261719 28.160156 8.320312 28.160156 L 19.738281 28.160156 C 20.730469 30.414062 22.984375 32 25.601562 32 C 29.132812 31.996094 31.996094 29.132812 32 25.601562 C 32 22.074219 29.128906 19.199219 25.601562 19.199219 L 25.601562 5.761719 C 25.597656 4.703125 24.742188 3.84375 23.679688 3.839844 L 19.199219 3.839844 L 19.199219 6.398438 C 19.199219 6.566406 19.132812 6.730469 19.011719 6.851562 C 18.890625 6.972656 18.730469 7.039062 18.558594 7.039062 L 13.441406 7.039062 C 13.085938 7.039062 12.800781 6.753906 12.800781 6.398438 L 12.800781 3.839844 Z M 15.980469 10.238281 C 16.605469 10.238281 17.089844 10.40625 17.28125 10.738281 C 19.113281 10.996094 18.546875 13.460938 18.28125 14.261719 C 18.378906 14.320312 18.539062 14.503906 18.5 14.839844 C 18.425781 15.46875 18.183594 15.628906 18.019531 15.640625 C 17.957031 16.226562 17.585938 16.910156 17.378906 17.019531 C 17.378906 17.4375 17.359375 17.761719 17.398438 18.21875 C 17.816406 19.339844 20.554688 19.234375 21.039062 21.140625 C 20.847656 21.335938 20.667969 21.542969 20.5 21.761719 L 10.878906 21.761719 C 10.878906 21.664062 10.890625 21.570312 10.898438 21.480469 L 10.878906 21.460938 C 11.128906 19.21875 14.140625 19.398438 14.578125 18.21875 C 14.585938 18.191406 14.601562 18.164062 14.621094 18.140625 C 14.652344 17.722656 14.640625 17.414062 14.640625 17.019531 C 14.433594 16.910156 14.042969 16.226562 13.980469 15.640625 C 13.816406 15.625 13.554688 15.46875 13.480469 14.839844 C 13.441406 14.5 13.601562 14.320312 13.699219 14.257812 C 13.148438 12.140625 13.46875 10.285156 15.980469 10.238281 M 25.601562 20.480469 C 26.960938 20.480469 28.265625 21.019531 29.222656 21.980469 C 30.183594 22.941406 30.722656 24.246094 30.71875 25.601562 C 30.722656 26.960938 30.183594 28.261719 29.222656 29.222656 C 28.261719 30.183594 26.960938 30.722656 25.601562 30.71875 C 24.242188 30.722656 22.941406 30.183594 21.976562 29.226562 C 21.015625 28.265625 20.476562 26.960938 20.480469 25.601562 C 20.476562 24.242188 21.015625 22.9375 21.976562 21.976562 C 22.9375 21.015625 24.242188 20.476562 25.601562 20.480469 M 23.621094 23.019531 C 23.59375 23.027344 23.566406 23.03125 23.539062 23.039062 C 23.300781 23.085938 23.105469 23.257812 23.039062 23.492188 C 22.972656 23.726562 23.039062 23.976562 23.21875 24.140625 L 24.679688 25.601562 L 23.21875 27.058594 C 23.097656 27.183594 23.027344 27.347656 23.027344 27.519531 C 23.027344 27.78125 23.1875 28.019531 23.429688 28.121094 C 23.671875 28.21875 23.953125 28.164062 24.140625 27.980469 L 25.601562 26.519531 L 27.058594 27.980469 C 27.246094 28.164062 27.527344 28.222656 27.769531 28.121094 C 28.011719 28.019531 28.171875 27.785156 28.171875 27.519531 C 28.171875 27.347656 28.101562 27.183594 27.980469 27.058594 L 26.519531 25.601562 L 27.980469 24.140625 C 28.1875 23.949219 28.242188 23.644531 28.117188 23.390625 C 27.996094 23.136719 27.71875 22.992188 27.441406 23.039062 C 27.296875 23.054688 27.164062 23.117188 27.058594 23.21875 L 25.601562 24.679688 L 24.140625 23.21875 C 24.007812 23.078125 23.816406 23.003906 23.621094 23.019531 "/>
</svg>

<svg role="img" viewBox="0 0 32 32" xmlns="http://www.w3.org/2000/svg"><path d="M16 1.281c-1.059 0-1.922.86-1.922 1.918v2.563h3.844V3.199A1.925 1.925 0 0 0 16 1.281M16 3.2a.64.64 0 0 1 .57.313.63.63 0 0 1 0 .652.63.63 0 0 1-.57.316.64.64 0 0 1-.621-.64c0-.344.277-.63.621-.64m-7.68.64a1.926 1.926 0 0 0-1.922 1.922v20.476c0 1.059.864 1.922 1.922 1.922h11.418c.992 2.254 3.246 3.84 5.864 3.84A6.407 6.407 0 0 0 32 25.602c0-3.528-2.871-6.403-6.398-6.403V5.762A1.93 1.93 0 0 0 23.68 3.84H19.2v2.558a.64.64 0 0 1-.641.641H13.44a.64.64 0 0 1-.64-.64v-2.56Zm7.66 6.398c.625 0 1.11.168 1.301.5 1.832.258 1.266 2.723 1 3.524.098.058.258.242.219.578-.074.629-.316.789-.48.8-.063.587-.434 1.27-.641 1.38 0 .418-.02.742.02 1.199.417 1.12 3.156 1.015 3.64 2.922a7 7 0 0 0-.539.62h-9.621c0-.097.012-.19.02-.28l-.02-.02c.25-2.242 3.262-2.063 3.7-3.242a.2.2 0 0 1 .042-.078c.031-.418.02-.727.02-1.121-.207-.11-.598-.793-.66-1.38-.165-.015-.426-.171-.5-.8-.04-.34.12-.52.218-.582-.55-2.117-.23-3.973 2.281-4.02m9.622 10.242a5.11 5.11 0 0 1 5.117 5.122 5.1 5.1 0 0 1-1.496 3.62 5.1 5.1 0 0 1-3.621 1.497 5.13 5.13 0 0 1-3.625-1.492 5.1 5.1 0 0 1-1.497-3.625 5.107 5.107 0 0 1 5.122-5.122m-1.98 2.54q-.042.009-.083.02a.64.64 0 0 0-.5.452.64.64 0 0 0 .18.649l1.46 1.46-1.46 1.458a.66.66 0 0 0-.192.46c0 .262.16.5.403.602a.67.67 0 0 0 .71-.14l1.462-1.461 1.457 1.46a.652.652 0 1 0 .922-.922l-1.461-1.456 1.46-1.461a.64.64 0 0 0 .137-.75.634.634 0 0 0-.676-.352.65.65 0 0 0-.382.18l-1.457 1.46-1.461-1.46a.65.65 0 0 0-.52-.2" fill="rgb(0%, 0%, 0%)"/></svg>
